X: 041
T: Speak twice before you Answer once
%R: reel, march
Z: 2014 John Chambers <jc:trillian.mit.edu>
B: Thompson "Twenty four Country Dances for the Year 1805" p.4 #1
F: http://folkopedia.efdss.org/images/2/2a/Thompson_24_1805.PDF 2014-8-13
M: 2/4
L: 1/16
K: F
cB |\
A2c2G2c2 | A2c2F2c2 |\
dcBA GFED | EFGE C2cB |\
A2c2G2c2 | A2c2F2c2 |\
dcBA GABc | A2F2F2 H:|
c2 |\
f2f2 fed^c | d2d2 d=cBA |\
G^FGA BAG=F | EFGE C4 |\
f2f2 fed^c | d2d2 d=cBA |\
G^FGA BdcA | GBAF "_D.C."Hc4 |]
% - - - - - - - - - - - - - - - - - - - - - - - - -
%%begintext align
%% The 1st & 2d Cu: change sidex, back again,
%% hands across half round back again, lead
%% down the middle up again, right hand & left.
%%endtext
% - - - - - - - - - - - - - - - - - - - - - - - - -
